public/assets/icons/video.svg

<svg width="26" height="26" viewBox="0 0 26 26" fill="none" xmlns="http://www.w3.org/2000/svg">
<path d="M22.9131 6.68482C22.469 6.44648 21.5373 6.19732 20.2698 7.08565L18.6773 8.21232C18.5581 4.84315 17.0956 3.52148 13.5423 3.52148H7.04232C3.33732 3.52148 1.89648 4.96232 1.89648 8.66732V17.334C1.89648 19.8256 3.25065 22.4798 7.04232 22.4798H13.5423C17.0956 22.4798 18.5581 21.1581 18.6773 17.789L20.2698 18.9156C20.9415 19.3923 21.5265 19.544 21.9923 19.544C22.3931 19.544 22.7073 19.4248 22.9131 19.3165C23.3573 19.089 24.1048 18.4715 24.1048 16.9223V9.07898C24.1048 7.52982 23.3573 6.91232 22.9131 6.68482ZM11.9173 12.329C10.8015 12.329 9.88065 11.419 9.88065 10.2923C9.88065 9.16565 10.8015 8.25565 11.9173 8.25565C13.0332 8.25565 13.954 9.16565 13.954 10.2923C13.954 11.419 13.0332 12.329 11.9173 12.329Z" fill="#F2F5F9"/>
</svg>

<svg xmlns="http://www.w3.org/2000/svg" width="26" height="26" fill="none"><path fill="#F2F5F9" d="M22.913 6.685c-.444-.239-1.376-.488-2.643.4l-1.593 1.127c-.119-3.369-1.581-4.69-5.135-4.69h-6.5c-3.705 0-5.146 1.44-5.146 5.145v8.667c0 2.492 1.355 5.146 5.146 5.146h6.5c3.554 0 5.016-1.322 5.135-4.691l1.593 1.127c.672.476 1.256.628 1.722.628.401 0 .715-.12.921-.227.444-.228 1.192-.846 1.192-2.395V9.08c0-1.55-.748-2.167-1.192-2.394m-10.996 5.644a2.04 2.04 0 0 1-2.036-2.037c0-1.126.92-2.036 2.036-2.036s2.037.91 2.037 2.036c0 1.127-.92 2.037-2.037 2.037"/></svg>
